X:699
T:Johnny Boyle's
R:Jig
O:Ireland
D:Altan: Blackwater
S:Altan: Blackwater
Z:Transcription, chords:Mike Long
M:6/8
L:1/8
K:G
G2E|:\
"G"DEG BAG|BdB BAG|"C"cde "G"dBG|"C"cBc "D"AGE|\
"G"DEG BAG|
BdB BAB|"D"def "G"gdB|[1 "D"cAF "G"GFE:|[2 "D"cAF "G"G2g\
|:"G"~b3 gbg|dgb bag|
"D"~a3 ~f3|dfa aga|\
"G"~b3 gbg|dgb bag|"D"~a3 ~f3|[1 "D"dfa "G"g2a:|[2 "D"dfa "G"g2f|]
"Em"~e3 edB|edB gdB|"C"edc "G"BAG|"C"~c3 "D"AGE|\
"G"DEG BAG|BdB BAB|"D"def "G"gdB|"D"cAF "G"GFE|]
